X: 35609
T: Saddle The Pony
R: jig
M: 6/8
K: Gmajor
|:GBA G2B|def gdB|GBA G2B|AFD AFD|
GBA G2B|def gfg|e/f/ge dBG|1 AGF G2D:|2 AGF GB/c/d||
|:e2e edB|def gfg|e2e edB|dBA ABd|
e2e edB|def gfg|e/f/ge dBG|1 AGF Ggf:|2 AGF G3||

